src/legacy/CleverPriceBanner/img/CleverPriceIcon.svg

<?xml version="1.0" encoding="UTF-8"?>
<svg width="38px" height="50px" viewBox="0 0 38 50" version="1.1" xmlns="http://www.w3.org/2000/svg" xmlns:xlink="http://www.w3.org/1999/xlink">
    <!-- Generator: Sketch 53 (72520) - https://sketchapp.com -->
    <title>award</title>
    <desc>Created with Sketch.</desc>
    <g id="Page-1" stroke="none" stroke-width="1" fill="none" fill-rule="evenodd">
        <g id="1CleverPrice-Desktop-aufgeklappt" transform="translate(-147.000000, -881.000000)">
            <g id="Group-2" transform="translate(147.000000, 881.000000)">
                <g id="award">
                    <path d="M19,41.3746655 L7.87850467,47.7221499 L7.87850467,25.744186 L30.1214953,25.744186 L30.1214953,47.7221499 L19,41.3746655 Z" id="Path" stroke="#2A4D8F" stroke-width="2"></path>
                    <path d="M19,38.5116279 C18.6757387,38.5116279 18.3514775,38.3858243 18.1044816,38.1355008 L13.4090265,33.376787 L6.33354444,33.376787 C5.63308945,33.376787 5.06689889,32.8029685 5.06689889,32.0930767 L5.06689889,24.9222714 L0.371443809,20.1635576 C-0.123814603,19.6616269 -0.123814603,18.850322 0.371443809,18.3483913 L5.06689889,13.5896775 L5.06689889,6.41887209 C5.06689889,5.70898033 5.63308945,5.13516186 6.33354444,5.13516186 L13.4090265,5.13516186 L18.1044816,0.376448026 C18.59974,-0.125482675 19.40026,-0.125482675 19.8955184,0.376448026 L24.5909735,5.13516186 L31.6664556,5.13516186 C32.3669106,5.13516186 32.9331011,5.70898033 32.9331011,6.41887209 L32.9331011,13.5896775 L37.6285562,18.3483913 C38.1238146,18.850322 38.1238146,19.6616269 37.6285562,20.1635576 L32.9331011,24.9222714 L32.9331011,32.0930767 C32.9331011,32.8029685 32.3669106,33.376787 31.6664556,33.376787 L24.5909735,33.376787 L19.8955184,38.1355008 C19.6485225,38.3858243 19.3242613,38.5116279 19,38.5116279 Z" id="Shape" fill="#2A4D8F" fill-rule="nonzero"></path>
                    <ellipse id="Oval" fill="#FFFFFF" cx="19.4766355" cy="19.5193798" rx="10.4766355" ry="10.5193798"></ellipse>
                    <path d="M20.7676768,14.3255191 C20.0208105,14.3255191 19.4055733,14.5458786 18.9219467,14.9866042 C18.4383202,15.4273297 18.1261103,16.0665285 17.9853076,16.9042197 L21.6859504,16.9042197 L21.6859504,18.5545881 L17.8475666,18.5545881 L17.8292011,18.8827863 L17.8292011,19.3235097 L17.8475666,19.6329538 L21.107438,19.6329538 L21.107438,21.3020764 L18.0036731,21.3020764 C18.3158877,22.821173 19.2984307,23.58071 20.9513315,23.58071 C21.8267567,23.58071 22.6684992,23.402547 23.476584,23.0462157 L23.476584,25.4467515 C22.7664489,25.8155857 21.8696106,26 20.7860422,26 C19.2861878,26 18.0526525,25.5842864 17.0853994,24.7528466 C16.1181464,23.9214069 15.5090309,22.7711616 15.2580349,21.3020764 L14,21.3020764 L14,19.6329538 L15.0835629,19.6329538 C15.0590755,19.489171 15.046832,19.2953797 15.046832,19.051574 L15.0651974,18.5545881 L14,18.5545881 L14,16.9042197 L15.2213039,16.9042197 C15.4478126,15.3913744 16.056928,14.195807 17.0486685,13.3174816 C18.040409,12.4391561 19.280066,12 20.7676768,12 C21.9185855,12 22.9960158,12.2563046 24,12.7689216 L23.1000918,14.9444072 C22.6776838,14.750613 22.2828301,14.5990182 21.9155188,14.4896182 C21.5482075,14.3802183 21.1655973,14.3255191 20.7676768,14.3255191 Z" id="€" fill="#2A4D8F"></path>
                </g>
            </g>
        </g>
    </g>
</svg>

<svg width="38" height="50" xmlns="http://www.w3.org/2000/svg"><g fill="none" fill-rule="evenodd"><path d="M19 41.375L7.879 47.722V25.744H30.12v21.978L19 41.375z" stroke="#2A4D8F" stroke-width="2"/><path d="M19 38.512c-.324 0-.649-.126-.896-.376l-4.695-4.76H6.334c-.7 0-1.267-.573-1.267-1.283v-7.17L.37 20.162a1.295 1.295 0 0 1 0-1.815l4.696-4.758V6.419c0-.71.566-1.284 1.267-1.284h7.075L18.104.376a1.253 1.253 0 0 1 1.792 0l4.695 4.76h7.075c.7 0 1.267.573 1.267 1.283v7.17l4.696 4.76a1.295 1.295 0 0 1 0 1.815l-4.696 4.758v7.171c0 .71-.566 1.284-1.267 1.284h-7.075l-4.695 4.759c-.247.25-.572.376-.896.376z" fill="#2A4D8F" fill-rule="nonzero"/><ellipse fill="#FFF" cx="19.477" cy="19.519" rx="10.477" ry="10.519"/><path d="M20.768 14.326c-.747 0-1.362.22-1.846.66-.484.441-.796 1.08-.937 1.918h3.701v1.65h-3.838l-.019.329v.44l.019.31h3.26v1.67h-3.104c.312 1.518 1.294 2.278 2.947 2.278.876 0 1.717-.178 2.526-.535v2.4c-.71.37-1.607.554-2.691.554-1.5 0-2.733-.416-3.7-1.247-.968-.832-1.577-1.982-1.828-3.45H14v-1.67h1.084a3.626 3.626 0 0 1-.037-.581l.018-.497H14v-1.65h1.221c.227-1.514.836-2.71 1.828-3.588C18.04 12.44 19.28 12 20.768 12c1.15 0 2.228.256 3.232.769l-.9 2.175a9.08 9.08 0 0 0-1.184-.454 4 4 0 0 0-1.148-.164z" fill="#2A4D8F"/></g></svg>
